svg/ionicons/logo-x.svg

<svg width="16" height="16" viewBox="0 0 16 16" fill="none" xmlns="http://www.w3.org/2000/svg">
<path d="M9.33349 6.92867L14.5459 1H13.3109L8.78291 6.14671L5.16908 1H1L6.46604 8.78342L1 15H2.235L7.01369 9.56363L10.8309 15H15L9.33349 6.92867ZM7.64142 8.85175L7.08675 8.07621L2.68037 1.91103H4.57759L8.13472 6.88838L8.68705 7.66391L13.3103 14.1334H11.4131L7.64142 8.85175Z" fill="black"/>
</svg>

<svg xmlns="http://www.w3.org/2000/svg" width="16" height="16" viewBox="0 0 16 16"><path d="M9.333 6.929 14.546 1H13.31L8.783 6.147 5.169 1H1l5.466 7.783L1 15h1.235l4.779-5.436L10.83 15H15zM7.641 8.852l-.554-.776L2.68 1.911h1.898l3.557 4.977.552.776 4.623 6.47h-1.897z"/></svg>
